X: 1
T: Bit of Ginger
T: the Lilting Fisherman
C: Paddy Killoran
R: jig
Z: 2009 John Chambers <jc:trillian.mit.edu>
S: printed MS of unknown origin (with diatonic accordion finger/bellow notation)
B: Jerry O’Brien’s "Accordion Instructor" (c. 1940)
M: 6/8
L: 1/8
K: G
B/c/ \
| dBG GBd | gfg efg | dBG GFG | AFD DFA \
| dBG GBd | gfg efg | dBG FGA | BGG G2 :|
F/G/ \
|: ABA AFA | fgf f2e | dfe dcB | AFF F2G \
| ABA AFA | BcB Bcd | cec ABc |1 dfe dcB :|2 dfe d2 |]
